svg/markdown-mark.svg

<svg fill="none" height="128" viewBox="0 0 208 128" width="208" xmlns="http://www.w3.org/2000/svg"><g fill="#000"><path clip-rule="evenodd" d="m15 10c-2.7614 0-5 2.2386-5 5v98c0 2.761 2.2386 5 5 5h178c2.761 0 5-2.239 5-5v-98c0-2.7614-2.239-5-5-5zm-15 5c0-8.28427 6.71573-15 15-15h178c8.284 0 15 6.71573 15 15v98c0 8.284-6.716 15-15 15h-178c-8.28427 0-15-6.716-15-15z" fill-rule="evenodd"/><path d="m30 98v-68h20l20 25 20-25h20v68h-20v-39l-20 25-20-25v39zm125 0-30-33h20v-35h20v35h20z"/></g></svg>

<svg width="208" height="128" viewBox="0 0 208 128" fill="none" xmlns="http://www.w3.org/2000/svg"><path fill-rule="evenodd" clip-rule="evenodd" d="M15 10C12.2386 10 10 12.2386 10 15V113C10 115.761 12.2386 118 15 118H193C195.761 118 198 115.761 198 113V15C198 12.2386 195.761 10 193 10H15ZM0 15C0 6.71573 6.71573 0 15 0H193C201.284 0 208 6.71573 208 15V113C208 121.284 201.284 128 193 128H15C6.71573 128 0 121.284 0 113V15Z" fill="black"/><path d="M30 98V30H50L70 55L90 30H110V98H90V59L70 84L50 59V98H30ZM155 98L125 65H145V30H165V65H185L155 98Z" fill="black"/></svg>
